X: 22
T:Bungalow Bill
T:Banbury Bill
M:4/4
L:1/4
O:Duns Tew
P:A(AB3)4A
K:D
P:A
DEFD|GA   B2| EFGA/G/|FGA2   |
ADFA|de   f2|{ga}geBc|d2d2   |]
P:B
defd|cd   e2| Bcde/d/|cBAB/c/|
dAFD|G/A/BA2| B/c/dce|d2d2   |]
</abc>
